T: Gillie Callum
M: 4/4
L: 1/8
K: Amix
|: A<Ac>A AgBG | A<Ac>A AacA |1 aefd egBG | A<Ac>e B/c/d e2 :|2 gbeg dgBG | A<Ac>E B/c/d e2 ||
